!!!OTL: WIE KOENNTE DENN HEUTE DIE WELT NOCH BESTEHEN
!!!ARE: Europa, Mitteleuropa, Deutschland, Hessen, Wetzlar
!!!SCT: E1528
!!!YEM: Copyright 1995, estate of Helmut Schaffrath.
**kern
*ICvox
*Ivox
*M6/8
*k[b-]
*F:
{8c
=1
8.f
16e
8f
8.a
16g
8f
=2
8.cc
16dd
8cc
8.a
16g}
{8f
=3
4g
8dd
4cc
8e
=4
4f
8ff
4cc}
{8a
=5
8.g
16g
8dd
4cc
8e
=6
[4.f
4f]
8r}
=7
{4.dd
4.ff
=8
4.cc
4ff}
{8a
=9
8.g
16g
8dd
4cc
8e
=10
2f
8r}
==
!!!AGN: Staende -, Bergmanns - Lied
!!!ONB: ESAC (Essen Associative Code) Database: ERK3
!!!AMT: compound duple
!!!AIN: vox
!!!EED: Helmut Schaffrath
!!!EEV: 1.0
*-
